dist/assets/images/icons/cloud.svg

<svg width="26" height="24" viewBox="0 0 26 24" fill="none" xmlns="http://www.w3.org/2000/svg">
<path fill-rule="evenodd" clip-rule="evenodd" d="M12.6795 23.7851L12.7507 23.8568H12.822L12.8932 23.9284H12.9645H13.0357L13.1068 24H13.1781H13.2493H13.3205H13.3918L13.463 23.9284H13.5342H13.6055V23.8568H13.6767L13.7479 23.7851L13.8192 23.7135L18.663 18.8418C18.8767 18.6268 18.8767 18.2687 18.663 17.9821C18.3781 17.7672 18.0219 17.7672 17.8082 17.9821L14.0329 21.7791V7.88055C14.0329 7.59399 13.748 7.30751 13.463 7.30751C13.1069 7.30751 12.822 7.59399 12.822 7.88055V21.7791L9.04662 17.9821C8.76169 17.7672 8.40549 17.7672 8.12056 17.9821C7.90686 18.2687 7.90686 18.6268 8.12056 18.8418L12.6795 23.7851ZM20.9425 16.2628C21.8685 16.2628 22.6521 15.9762 23.2219 15.3314C23.7918 14.7582 24.148 13.9701 24.148 13.0388C24.148 12.2507 23.863 11.4627 23.3644 10.9612C22.8658 10.3881 22.2247 9.9582 21.4411 9.81492C20.9425 9.74328 20.5863 9.31343 20.5863 8.81193C20.5863 6.8776 19.874 5.15825 18.5918 3.94033C17.3096 2.65078 15.6 1.93436 13.7479 1.93436C12.3233 1.93436 10.9698 2.29249 9.97258 3.08055C8.83285 3.79697 7.97805 4.87166 7.40818 6.16122C7.26572 6.51943 6.90963 6.73436 6.48223 6.73436C5.20003 6.80601 4.13156 7.37908 3.27677 8.23878C2.4932 9.09849 1.99452 10.2448 1.99452 11.5344C1.99452 12.8956 2.49316 14.0418 3.34796 14.9015C4.13152 15.6896 5.05755 16.1195 6.12604 16.2628C7.47947 16.4777 7.12331 18.412 5.91235 18.2687C4.34523 18.0538 3.06305 17.4806 1.92332 16.3344C0.71236 15.1165 0 13.3971 0 11.5344C0 9.74331 0.712291 8.09548 1.85202 6.87757C2.84928 5.80294 4.20277 5.08657 5.69866 4.8C6.41099 3.4388 7.47943 2.22088 8.76163 1.43282C10.1863 0.501472 11.8959 0 13.6767 0C16.0986 0 18.3069 0.93135 19.9453 2.57912C21.3699 4.01196 22.296 5.94621 22.5097 8.09547C23.4357 8.38204 24.2192 9.02682 24.7891 9.6716C25.5726 10.6029 26 11.8209 26 13.0388C26 14.4716 25.4302 15.8329 24.5042 16.7642C23.6494 17.5523 22.5809 18.1254 21.2987 18.2687C21.2275 18.2687 21.1562 18.2687 21.0137 18.2687H20.2301C19.6603 18.2687 19.2329 17.8389 19.2329 17.2657C19.2329 16.7643 19.6603 16.2628 20.2301 16.2628H20.9425Z" fill="#E30613"/>
</svg>

<svg width="26" height="24" fill="none" xmlns="http://www.w3.org/2000/svg"><path fill-rule="evenodd" clip-rule="evenodd" d="M12.68 23.785l.07.072h.072l.071.071h.143l.07.072h.286l.071-.072h.142v-.071h.072l.07-.072.072-.072 4.844-4.871c.214-.215.214-.573 0-.86-.285-.215-.641-.215-.855 0l-3.775 3.797V7.881c0-.287-.285-.573-.57-.573-.356 0-.641.286-.641.573v13.898l-3.775-3.797a.746.746 0 00-.926 0c-.214.287-.214.645 0 .86l4.559 4.943zm8.262-7.522c.927 0 1.71-.287 2.28-.932.57-.573.926-1.36.926-2.292 0-.788-.285-1.576-.784-2.078-.498-.573-1.14-1.003-1.923-1.146a1.003 1.003 0 01-.855-1.003c0-1.934-.712-3.654-1.994-4.872a6.765 6.765 0 00-4.844-2.006c-1.425 0-2.778.358-3.775 1.147-1.14.716-1.995 1.79-2.565 3.08-.142.358-.498.573-.926.573-1.282.072-2.35.645-3.205 1.505a4.868 4.868 0 00-1.282 3.295c0 1.362.498 2.508 1.353 3.367.784.789 1.71 1.218 2.778 1.362 1.353.215.997 2.149-.214 2.006-1.567-.215-2.849-.788-3.989-1.935C.713 15.117 0 13.397 0 11.534c0-1.79.712-3.439 1.852-4.656.997-1.075 2.35-1.791 3.847-2.078.712-1.361 1.78-2.58 3.063-3.367C10.186.5 11.896 0 13.677 0c2.422 0 4.63.931 6.268 2.58 1.425 1.432 2.351 3.366 2.565 5.515.926.287 1.71.932 2.28 1.577A5.272 5.272 0 0126 13.039c0 1.433-.57 2.794-1.496 3.725-.855.788-1.923 1.361-3.205 1.505H20.23a.977.977 0 01-.997-1.003c0-.502.427-1.003.997-1.003h.712z" fill="#E30613"/></svg>
